lib/assets/images/vtb_title.svg

<svg width="51" height="20" viewBox="0 0 51 20" fill="none" xmlns="http://www.w3.org/2000/svg">
<path d="M0.75 20H9.48633C13.6973 20 16.3086 17.8398 16.3086 14.3809V14.3535C16.3086 11.7695 14.3125 9.82812 11.5781 9.62305V9.54102C13.7383 9.25391 15.3926 7.4082 15.3926 5.24805V5.2207C15.3926 2.18555 13.0547 0.271484 9.33594 0.271484H0.75V20ZM8.26953 3.33398C10.1973 3.33398 11.332 4.23633 11.332 5.80859V5.83594C11.332 7.54492 10.0742 8.51562 7.76367 8.51562H4.87891V3.33398H8.26953ZM8.24219 11.3184C10.7715 11.3184 12.084 12.2891 12.084 14.0938V14.1211C12.084 15.9531 10.7852 16.9238 8.41992 16.9238H4.87891V11.3184H8.24219ZM23.0301 20H27.159V3.67578H32.8602V0.271484H17.3152V3.67578H23.0301V20ZM35.6031 20H43.6969C47.7438 20 50.5328 17.5117 50.5328 13.793V13.7656C50.5328 10.1289 47.6754 7.68164 43.5602 7.68164H39.732V3.67578H48.7145V0.271484H35.6031V20ZM39.732 16.7051V10.8262H42.6578C44.9684 10.8262 46.3219 11.8652 46.3219 13.7656V13.793C46.3219 15.6797 44.9684 16.7051 42.6715 16.7051H39.732Z" fill="#E4E8EE"/>
</svg>

<svg width="51" height="20" fill="none" xmlns="http://www.w3.org/2000/svg"><path d="M.75 20h8.736c4.211 0 6.823-2.16 6.823-5.62v-.027c0-2.583-1.997-4.525-4.73-4.73v-.082c2.16-.287 3.814-2.133 3.814-4.293v-.027c0-3.035-2.338-4.95-6.057-4.95H.75V20zM8.27 3.334c1.927 0 3.062.902 3.062 2.475v.027c0 1.709-1.258 2.68-3.568 2.68H4.879V3.334h3.39zm-.028 7.984c2.53 0 3.842.971 3.842 2.776v.027c0 1.832-1.299 2.803-3.664 2.803H4.879v-5.606h3.363zM23.03 20h4.129V3.676h5.701V.27H17.315v3.405h5.715V20zm12.573 0h8.094c4.047 0 6.836-2.488 6.836-6.207v-.027c0-3.637-2.858-6.084-6.973-6.084h-3.828V3.676h8.983V.27H35.602V20zm4.129-3.295v-5.879h2.926c2.31 0 3.664 1.04 3.664 2.94v.027c0 1.887-1.354 2.912-3.65 2.912h-2.94z" fill="#E4E8EE"/></svg>
